projects/oblique/icons/GenderIdentityNonBinary.svg

<?xml version="1.0" encoding="UTF-8"?><svg id="a" xmlns="http://www.w3.org/2000/svg" viewBox="0 0 24 24"><path d="M12.75,10.43262v-3.97949l1.3291.76758.75-1.29883-1.32886-.76758,1.32886-.7666-.75-1.2998-1.3291.76758v-1.23047h-1.5v1.23047l-1.3291-.76758-.75,1.2998,1.32886.7666-1.32886.76758.75,1.29883,1.3291-.76758v3.97949c-2.67786.36719-4.75,2.66504-4.75,5.44238,0,3.03223,2.46777,5.5,5.5,5.5s5.5-2.46777,5.5-5.5c0-2.77734-2.07214-5.0752-4.75-5.44238ZM12,19.875c-2.20605,0-4-1.79492-4-4,0-2.20605,1.79395-4,4-4s4,1.79395,4,4c0,2.20508-1.79395,4-4,4Z"/></svg>

<svg xmlns="http://www.w3.org/2000/svg" viewBox="0 0 24 24"><path d="M12.75,10.43262V6.45312l1.3291.76758.75-1.29882L13.50024,5.1543l1.32886-.7666-.75-1.29981L12.75,3.85547V2.625h-1.5V3.85547L9.9209,3.08789l-.75,1.29981,1.32886.7666L9.1709,5.92188l.75,1.29882L11.25,6.45312v3.9795a5.5,5.5,0,1,0,1.5,0ZM12,19.875a4,4,0,1,1,4-4A4.00458,4.00458,0,0,1,12,19.875Z" fill="#171717"/></svg>
